Numix-Circle/48x48/apps/armoryicon.svg

<svg xmlns="http://www.w3.org/2000/svg" viewBox="0 0 48 48"><defs><linearGradient id="linearGradient3764" x1="1" x2="47" gradientUnits="userSpaceOnUse" gradientTransform="matrix(0,-1,1,0,-1.5e-6,47.999998)"><stop stop-color="#3d3d3d" stop-opacity="1"/><stop offset="1" stop-color="#474747" stop-opacity="1"/></linearGradient></defs><g><path d="m 36.31 5 c 5.859 4.062 9.688 10.831 9.688 18.5 c 0 12.426 -10.07 22.5 -22.5 22.5 c -7.669 0 -14.438 -3.828 -18.5 -9.688 c 1.037 1.822 2.306 3.499 3.781 4.969 c 4.085 3.712 9.514 5.969 15.469 5.969 c 12.703 0 23 -10.298 23 -23 c 0 -5.954 -2.256 -11.384 -5.969 -15.469 c -1.469 -1.475 -3.147 -2.744 -4.969 -3.781 z m 4.969 3.781 c 3.854 4.113 6.219 9.637 6.219 15.719 c 0 12.703 -10.297 23 -23 23 c -6.081 0 -11.606 -2.364 -15.719 -6.219 c 4.16 4.144 9.883 6.719 16.219 6.719 c 12.703 0 23 -10.298 23 -23 c 0 -6.335 -2.575 -12.06 -6.719 -16.219 z" opacity="0.05"/><path d="m 41.28 8.781 c 3.712 4.085 5.969 9.514 5.969 15.469 c 0 12.703 -10.297 23 -23 23 c -5.954 0 -11.384 -2.256 -15.469 -5.969 c 4.113 3.854 9.637 6.219 15.719 6.219 c 12.703 0 23 -10.298 23 -23 c 0 -6.081 -2.364 -11.606 -6.219 -15.719 z" opacity="0.1"/><path d="m 31.25 2.375 c 8.615 3.154 14.75 11.417 14.75 21.13 c 0 12.426 -10.07 22.5 -22.5 22.5 c -9.708 0 -17.971 -6.135 -21.12 -14.75 a 23 23 0 0 0 44.875 -7 a 23 23 0 0 0 -16 -21.875 z" opacity="0.2"/></g><g><path d="m 24 1 c 12.703 0 23 10.297 23 23 c 0 12.703 -10.297 23 -23 23 -12.703 0 -23 -10.297 -23 -23 0 -12.703 10.297 -23 23 -23 z" fill="url(#linearGradient3764)" fill-opacity="1"/></g><g><path d="m 40.03 7.531 c 3.712 4.084 5.969 9.514 5.969 15.469 0 12.703 -10.297 23 -23 23 c -5.954 0 -11.384 -2.256 -15.469 -5.969 4.178 4.291 10.01 6.969 16.469 6.969 c 12.703 0 23 -10.298 23 -23 0 -6.462 -2.677 -12.291 -6.969 -16.469 z" opacity="0.1"/></g><g transform="translate(-1,0)"><g transform="translate(1,1)" fill="#000" fill-opacity="0.118"><path d="m 18 18 -6 6 6 6 1.5 -1.5 -3.5 -3.5 l 0 -2 3.5 -3.5 z" fill="#000" fill-rule="nonzero" stroke="none" fill-opacity="0.118"/><path d="m 30.5 30.5 -6 -6 -6 6 1.5 1.5 3.5 -3.5 2 0 3.5 3.5 z" fill="#000" fill-rule="nonzero" stroke="none" fill-opacity="0.118"/><path d="m 30.5 17.5 -6 6 l -6 -6 1.5 -1.5 l 3.5 3.5 2 0 l 3.5 -3.5 z" fill="#000" fill-rule="nonzero" stroke="none" fill-opacity="0.118"/><path d="m 31 18 6 6 -6 6 -1.5 -1.5 3.5 -3.5 0 -2 -3.5 -3.5 z" fill="#000" fill-rule="nonzero" stroke="none" fill-opacity="0.118"/></g><g><g><path d="m 18 18 -6 6 6 6 1.5 -1.5 -3.5 -3.5 l 0 -2 3.5 -3.5 z" fill="#ec5303" fill-rule="nonzero" stroke="none" fill-opacity="1"/><path d="m 30.5 30.5 -6 -6 -6 6 1.5 1.5 3.5 -3.5 2 0 3.5 3.5 z" fill="#437bd3" fill-rule="nonzero" stroke="none" fill-opacity="1"/><path d="m 30.5 17.5 -6 6 l -6 -6 1.5 -1.5 l 3.5 3.5 2 0 l 3.5 -3.5 z" fill="#437bd3" fill-rule="nonzero" stroke="none" fill-opacity="1"/><path d="m 31 18 6 6 -6 6 -1.5 -1.5 3.5 -3.5 0 -2 -3.5 -3.5 z" fill="#437bd3" fill-rule="nonzero" stroke="none" fill-opacity="1"/></g></g></g></svg>

<?xml version="1.0" encoding="UTF-8" standalone="no"?>
<svg
   xmlns:dc="http://purl.org/dc/elements/1.1/"
   xmlns:cc="http://creativecommons.org/ns#"
   xmlns:rdf="http://www.w3.org/1999/02/22-rdf-syntax-ns#"
   xmlns:svg="http://www.w3.org/2000/svg"
   xmlns="http://www.w3.org/2000/svg"
   xmlns:sodipodi="http://sodipodi.sourceforge.net/DTD/sodipodi-0.dtd"
   xmlns:inkscape="http://www.inkscape.org/namespaces/inkscape"
   viewBox="0 0 48 48"
   id="svg2"
   version="1.1"
   inkscape:version="0.91 r13725"
   width="100%"
   height="100%"
   sodipodi:docname="armoryicon.svg">
  <metadata
     id="metadata65">
    <rdf:RDF>
      <cc:Work
         rdf:about="">
        <dc:format>image/svg+xml</dc:format>
        <dc:type
           rdf:resource="http://purl.org/dc/dcmitype/StillImage" />
        <dc:title />
      </cc:Work>
    </rdf:RDF>
  </metadata>
  <sodipodi:namedview
     pagecolor="#ffffff"
     bordercolor="#666666"
     borderopacity="1"
     objecttolerance="10"
     gridtolerance="10"
     guidetolerance="10"
     inkscape:pageopacity="0"
     inkscape:pageshadow="2"
     inkscape:window-width="1366"
     inkscape:window-height="713"
     id="namedview63"
     showgrid="false"
     showguides="true"
     inkscape:guide-bbox="true"
     inkscape:zoom="2.8284271"
     inkscape:cx="23.226602"
     inkscape:cy="24"
     inkscape:window-x="0"
     inkscape:window-y="28"
     inkscape:window-maximized="1"
     inkscape:current-layer="svg2">
    <inkscape:grid
       type="xygrid"
       id="grid3071" />
  </sodipodi:namedview>
  <defs
     id="defs4">
    <linearGradient
       id="linearGradient3764"
       x1="1"
       x2="47"
       gradientUnits="userSpaceOnUse"
       gradientTransform="matrix(0,-1,1,0,-1.5e-6,47.999998)">
      <stop
         stop-color="#3d3d3d"
         stop-opacity="1"
         id="stop7" />
      <stop
         offset="1"
         stop-color="#474747"
         stop-opacity="1"
         id="stop9" />
    </linearGradient>
  </defs>
  <g
     id="g21">
    <path
       d="m 36.31 5 c 5.859 4.062 9.688 10.831 9.688 18.5 c 0 12.426 -10.07 22.5 -22.5 22.5 c -7.669 0 -14.438 -3.828 -18.5 -9.688 c 1.037 1.822 2.306 3.499 3.781 4.969 c 4.085 3.712 9.514 5.969 15.469 5.969 c 12.703 0 23 -10.298 23 -23 c 0 -5.954 -2.256 -11.384 -5.969 -15.469 c -1.469 -1.475 -3.147 -2.744 -4.969 -3.781 z m 4.969 3.781 c 3.854 4.113 6.219 9.637 6.219 15.719 c 0 12.703 -10.297 23 -23 23 c -6.081 0 -11.606 -2.364 -15.719 -6.219 c 4.16 4.144 9.883 6.719 16.219 6.719 c 12.703 0 23 -10.298 23 -23 c 0 -6.335 -2.575 -12.06 -6.719 -16.219 z"
       opacity="0.05"
       id="path23" />
    <path
       d="m 41.28 8.781 c 3.712 4.085 5.969 9.514 5.969 15.469 c 0 12.703 -10.297 23 -23 23 c -5.954 0 -11.384 -2.256 -15.469 -5.969 c 4.113 3.854 9.637 6.219 15.719 6.219 c 12.703 0 23 -10.298 23 -23 c 0 -6.081 -2.364 -11.606 -6.219 -15.719 z"
       opacity="0.1"
       id="path25" />
    <path
       d="m 31.25 2.375 c 8.615 3.154 14.75 11.417 14.75 21.13 c 0 12.426 -10.07 22.5 -22.5 22.5 c -9.708 0 -17.971 -6.135 -21.12 -14.75 a 23 23 0 0 0 44.875 -7 a 23 23 0 0 0 -16 -21.875 z"
       opacity="0.2"
       id="path27" />
  </g>
  <g
     id="g29">
    <path
       d="m 24 1 c 12.703 0 23 10.297 23 23 c 0 12.703 -10.297 23 -23 23 -12.703 0 -23 -10.297 -23 -23 0 -12.703 10.297 -23 23 -23 z"
       fill="url(#linearGradient3764)"
       fill-opacity="1"
       id="path31" />
  </g>
  <g
     id="g33" />
  <g
     id="g59">
    <path
       d="m 40.03 7.531 c 3.712 4.084 5.969 9.514 5.969 15.469 0 12.703 -10.297 23 -23 23 c -5.954 0 -11.384 -2.256 -15.469 -5.969 4.178 4.291 10.01 6.969 16.469 6.969 c 12.703 0 23 -10.298 23 -23 0 -6.462 -2.677 -12.291 -6.969 -16.469 z"
       opacity="0.1"
       id="path61" />
  </g>
  <g
     id="g3799"
     transform="translate(-1,0)">
    <g
       transform="translate(1,1)"
       style="fill:#000000;fill-opacity:0.11764706"
       id="g3015">
      <path
         sodipodi:nodetypes="cccccccc"
         inkscape:connector-curvature="0"
         id="path3017"
         d="M 18,18 12,23.999824 18,30 19.5,28.5 16,25 l 0,-2 3.5,-3.5 z"
         style="fill:#000000;fill-opacity:0.11764706;fill-rule:nonzero;stroke:none" />
      <path
         style="fill:#000000;fill-opacity:0.11764706;fill-rule:nonzero;stroke:none"
         d="m 30.5,30.5 -5.999824,-6 -6.000176,6 1.5,1.5 3.5,-3.5 2,0 3.5,3.5 z"
         id="path3019"
         inkscape:connector-curvature="0"
         sodipodi:nodetypes="cccccccc" />
      <path
         sodipodi:nodetypes="cccccccc"
         inkscape:connector-curvature="0"
         id="path3021"
         d="m 30.5,17.5 -5.999824,6 L 18.5,17.5 20,16 l 3.5,3.5 2,0 L 29,16 z"
         style="fill:#000000;fill-opacity:0.11764706;fill-rule:nonzero;stroke:none" />
      <path
         style="fill:#000000;fill-opacity:0.11764706;fill-rule:nonzero;stroke:none"
         d="M 31,18 37,23.999824 31,30 29.5,28.5 33,25 33,23 29.5,19.5 z"
         id="path3023"
         inkscape:connector-curvature="0"
         sodipodi:nodetypes="cccccccc" />
    </g>
    <g
       id="g3004">
      <g
         id="g3793">
        <path
           sodipodi:nodetypes="cccccccc"
           inkscape:connector-curvature="0"
           id="rect3068"
           d="M 18,18 12,23.999824 18,30 19.5,28.5 16,25 l 0,-2 3.5,-3.5 z"
           style="fill:#ec5303;fill-opacity:1;fill-rule:nonzero;stroke:none" />
        <path
           style="fill:#437bd3;fill-opacity:1;fill-rule:nonzero;stroke:none"
           d="m 30.5,30.5 -5.999824,-6 -6.000176,6 1.5,1.5 3.5,-3.5 2,0 3.5,3.5 z"
           id="path3085"
           inkscape:connector-curvature="0"
           sodipodi:nodetypes="cccccccc" />
        <path
           sodipodi:nodetypes="cccccccc"
           inkscape:connector-curvature="0"
           id="path3087"
           d="m 30.5,17.5 -5.999824,6 L 18.5,17.5 20,16 l 3.5,3.5 2,0 L 29,16 z"
           style="fill:#437bd3;fill-opacity:1;fill-rule:nonzero;stroke:none" />
        <path
           style="fill:#437bd3;fill-opacity:1;fill-rule:nonzero;stroke:none"
           d="M 31,18 37,23.999824 31,30 29.5,28.5 33,25 33,23 29.5,19.5 z"
           id="path3089"
           inkscape:connector-curvature="0"
           sodipodi:nodetypes="cccccccc" />
      </g>
    </g>
  </g>
</svg>
